X: 2
T: Morgiana
%R: jig
B: Cahusac "Annual Collection of Twenty-four favorite Country Dances For the Year 1809", p.2 #1
F: http://imslp.org/wiki/24_Country_Dances_for_the_Year_1809_%28Various%29
F: http://javanese.imslp.info/files/imglnks/usimg/0/0d/IMSLP351863-PMLP71785-wm_cahusac_24_dances_1809.pdf
Z: 2015 by John Chambers  <jc:trillian.mit.edu>
M: 6/8
L: 1/8
K: F
% - - - - - - - - - - - - - - - - - - - - - - - - - - - - -
c |\
(cA)c {fg}a2g | fed c2d | (cA).c (fc).a | (ba).g (gf).d |\
(cA)c a2g | fed c2d | (cA).c (fc).f | (ag).e f2 |]
g |\
gag fed | ccc b2c | (ac).c (fc).c | acc g3 |\
gag fed | dcc b2c | (ac).c (fc).c | gfe dcB |]
AFG A2c | AFG A2c | B2d A2c | G3- GcB |\
AFG A2c | AFG A2c | d2f e2g | f3- f2 |]
% - - - - - - - - - - Dance description - - - - - - - - - -
%%begintext align
%% 1st Lady change places with 2d Gent: 1st Gent: do the same
%% with 2d Lady, Pousette, and Right & left.
%%endtext

%%sep 1 1 500
%%sep 1 1 500
